static/cards/FrenchDeck/cyberwave/card_back.svg

<svg xmlns="http://www.w3.org/2000/svg" width="722" height="1022" fill="none" viewBox="0 0 722 1022"><g fill-rule="evenodd" clip-path="url(#a)" clip-rule="evenodd"><path fill="#26004d" d="M891.31 162.272h-24.69c-24.69 0-74.07 0-123.451-20.7-49.38-19.319-99.994-59.338-149.374-64.858-49.38-4.14-98.76 26.219-148.14 60.718s-98.76 74.518-148.14 49.679S197.52 72.574 148.14 36.695c-49.38-34.499-98.76-13.8-123.45-4.14L0 42.215v209.754h891.31z"/><path fill="#306" d="m0 189.181 30-12.946c30-14.796 90-40.688 151-33.29 60 5.548 120 46.236 180 79.527 60 33.29 120 61.032 181 20.344 60-40.688 120-147.957 150-201.591l30-53.635v321.806H0z"/><path fill="#4d0099" d="M0 291.995h30c30 0 90 0 151-47.543 60-47.543 117.38-103.122 177.38-95.199 60 10.565 122.62 84.634 183.62 113.688 60 29.054 120-29.054 150-58.108l30-26.413v285.257H0z"/><path fill="#60c" d="m-377 231 30.443 52.922c30.443 51.318 91.33 155.557 152.216 184.424 60.887 28.866 123.295-17.641 184.182-28.867s121.773 11.226 182.659 0 121.773-57.732 182.659-97.825c60.887-41.695 123.295-75.373 184.182-57.732 60.886 16.037 121.773 86.599 152.216 121.88L722 439.479V579H-377z"/><path fill="#93f" d="m-254.168 479.74 56.13 27.263c56.13 27.264 168.391 81.79 282.256 60.942C196.478 547.096 308.739 452.477 421 446.062s224.522 75.375 338.386 73.771c112.261 1.604 224.522-80.186 280.654-120.279l56.13-41.697v365.649H-254.168z"/><path fill="#b366ff" d="m0 649.805 35-4c35-5 105-13 176-26 70-12 140-29 210-8s140 80 211 97c70 17 140-8 175-21l35-13v152H0z"/><path fill="#c9f" d="m0 762.65 35 7.181c35 7.182 105 23.34 176 30.521 70 7.182 140 7.182 210-7.181 70-16.158 140-46.679 211-53.861 70-7.181 140 7.182 175 16.159l35 7.181v181.331H0z"/><path fill="#f2e6ff" d="M-60 899.73h28c28 0 84 0 140-6.445 57-6.445 113-20.947 169-40.282 56-20.946 112-48.338 168-20.946 56 27.391 113 107.954 169 107.954s112-80.563 140-120.844l28-41.893v244.916H-60z"/></g><defs><clipPath id="a"><path fill="#fff" d="M0 0h722v1022H0z"/></clipPath></defs></svg>

<svg width="722" height="1022" viewBox="0 0 722 1022" fill="none" xmlns="http://www.w3.org/2000/svg">
<g clip-path="url(#clip0_41_1099)">
<path fill-rule="evenodd" clip-rule="evenodd" d="M891.31 162.272H866.62C841.93 162.272 792.55 162.272 743.169 141.572C693.789 122.253 643.175 82.2338 593.795 76.714C544.415 72.5741 495.035 102.933 445.655 137.432C396.275 171.931 346.895 211.95 297.515 187.111C248.135 162.272 197.52 72.5741 148.14 36.6951C98.7602 2.19602 49.3801 22.8954 24.6901 32.5552L0.00012207 42.2149V251.969H24.6901C49.3801 251.969 98.7602 251.969 148.14 251.969C197.52 251.969 248.135 251.969 297.515 251.969C346.895 251.969 396.275 251.969 445.655 251.969C495.035 251.969 544.415 251.969 593.795 251.969C643.175 251.969 693.789 251.969 743.169 251.969C792.55 251.969 841.93 251.969 866.62 251.969H891.31V162.272Z" fill="#26004D"/>
<path fill-rule="evenodd" clip-rule="evenodd" d="M0 189.181L30 176.235C60 161.439 120 135.547 181 142.945C241 148.493 301 189.181 361 222.472C421 255.762 481 283.504 542 242.816C602 202.128 662 94.8588 692 41.2245L722 -12.4099V309.396H692C662 309.396 602 309.396 542 309.396C481 309.396 421 309.396 361 309.396C301 309.396 241 309.396 181 309.396C120 309.396 60 309.396 30 309.396H0V189.181Z" fill="#330066"/>
<path fill-rule="evenodd" clip-rule="evenodd" d="M0 291.995H30C60 291.995 120 291.995 181 244.452C241 196.909 298.38 141.33 358.38 149.253C418.38 159.818 481 233.887 542 262.941C602 291.995 662 233.887 692 204.833L722 178.42V463.677H692C662 463.677 602 463.677 542 463.677C481 463.677 421 463.677 361 463.677C301 463.677 241 463.677 181 463.677C120 463.677 60 463.677 30 463.677H0V291.995Z" fill="#4D0099"/>
<path fill-rule="evenodd" clip-rule="evenodd" d="M-377 231L-346.557 283.922C-316.114 335.24 -255.227 439.479 -194.341 468.346C-133.454 497.212 -71.0457 450.705 -10.1593 439.479C50.7271 428.253 111.614 450.705 172.5 439.479C233.386 428.253 294.273 381.747 355.159 341.654C416.046 299.959 478.454 266.281 539.341 283.922C600.227 299.959 661.114 370.521 691.557 405.802L722 439.479V579H691.557C661.114 579 600.227 579 539.341 579C478.454 579 416.046 579 355.159 579C294.273 579 233.386 579 172.5 579C111.614 579 50.7271 579 -10.1593 579C-71.0457 579 -133.454 579 -194.341 579C-255.227 579 -316.114 579 -346.557 579H-377V231Z" fill="#6600CC"/>
<path fill-rule="evenodd" clip-rule="evenodd" d="M-254.168 479.74L-198.038 507.003C-141.908 534.267 -29.6469 588.793 84.2176 567.945C196.478 547.096 308.739 452.477 421 446.062C533.261 439.647 645.522 521.437 759.386 519.833C871.647 521.437 983.908 439.647 1040.04 399.554L1096.17 357.857V723.506H1040.04C983.908 723.506 871.647 723.506 759.386 723.506C645.522 723.506 533.261 723.506 421 723.506C308.739 723.506 196.478 723.506 84.2176 723.506C-29.6469 723.506 -141.908 723.506 -198.038 723.506H-254.168V479.74Z" fill="#9933FF"/>
<path fill-rule="evenodd" clip-rule="evenodd" d="M0 649.805L35 645.805C70 640.805 140 632.805 211 619.805C281 607.805 351 590.805 421 611.805C491 632.805 561 691.805 632 708.805C702 725.805 772 700.805 807 687.805L842 674.805V826.805H807C772 826.805 702 826.805 632 826.805C561 826.805 491 826.805 421 826.805C351 826.805 281 826.805 211 826.805C140 826.805 70 826.805 35 826.805H0V649.805Z" fill="#B366FF"/>
<path fill-rule="evenodd" clip-rule="evenodd" d="M0 762.65L35 769.831C70 777.013 140 793.171 211 800.352C281 807.534 351 807.534 421 793.171C491 777.013 561 746.492 632 739.31C702 732.129 772 746.492 807 755.469L842 762.65V943.981H807C772 943.981 702 943.981 632 943.981C561 943.981 491 943.981 421 943.981C351 943.981 281 943.981 211 943.981C140 943.981 70 943.981 35 943.981H0V762.65Z" fill="#CC99FF"/>
<path fill-rule="evenodd" clip-rule="evenodd" d="M-60 899.73H-32C-4 899.73 52 899.73 108 893.285C165 886.84 221 872.338 277 853.003C333 832.057 389 804.665 445 832.057C501 859.448 558 940.011 614 940.011C670 940.011 726 859.448 754 819.167L782 777.274V1022.19H754C726 1022.19 670 1022.19 614 1022.19C558 1022.19 501 1022.19 445 1022.19C389 1022.19 333 1022.19 277 1022.19C221 1022.19 165 1022.19 108 1022.19C52 1022.19 -4 1022.19 -32 1022.19H-60V899.73Z" fill="#F2E6FF"/>
</g>
<defs>
<clipPath id="clip0_41_1099">
<rect width="722" height="1022" fill="white"/>
</clipPath>
</defs>
</svg>
